resources/assets/img/icons/article.svg

<svg width="12" height="12" viewBox="0 0 12 12" xmlns="http://www.w3.org/2000/svg"><title>article</title><path d="M10.667 0H1.333C.6 0 0 .6 0 1.333v9.334C0 11.4.6 12 1.333 12h9.334C11.4 12 12 11.4 12 10.667V1.333C12 .6 11.4 0 10.667 0zM10 4H2V2h8v2zm0 3H2V5h8v2zm-3 3H2V8h5v2z" fill="#212121" fill-rule="evenodd"/></svg>

<?xml version="1.0" encoding="UTF-8" standalone="no"?>
<svg width="12px" height="12px" viewBox="0 0 12 12" version="1.1" xmlns="http://www.w3.org/2000/svg" xmlns:xlink="http://www.w3.org/1999/xlink">
    <!-- Generator: Sketch 3.6.1 (26313) - http://www.bohemiancoding.com/sketch -->
    <title>article</title>
    <desc>Created with Sketch.</desc>
    <defs></defs>
    <g id="Page-1" stroke="none" stroke-width="1" fill="none" fill-rule="evenodd">
        <g id="article" fill="#212121">
            <path d="M10.667,0 L1.333,0 C0.6,0 0,0.6 0,1.333 L0,10.667 C0,11.4 0.6,12 1.333,12 L10.667,12 C11.4,12 12,11.4 12,10.667 L12,1.333 C12,0.6 11.4,0 10.667,0 L10.667,0 Z M10,4 L2,4 L2,2 L10,2 L10,4 L10,4 Z M10,7 L2,7 L2,5 L10,5 L10,7 L10,7 Z M7,10 L2,10 L2,8 L7,8 L7,10 L7,10 Z" id="Shape"></path>
        </g>
    </g>
</svg>
